!!!OTL: Klage ueber Untreue
!!!ARE: Europa, Mitteleuropa, Deutschland
!!!SCT: A0216
!!!YEM: Copyright 1995, estate of Helmut Schaffrath.
**kern
*ICvox
*Ivox
*M4/2
*k[b-]
*F:
=1
{1.f
4e
4d
=2
2c
1f
2e}
=3
{2.f
4g
2a
2f
=4
2g
2a
1b-
=5
1a
2r}
{2a
=6
2a
2g
2a
2b-
=7
1cc
2b-
[2a
=8
2a]
4g
4f
2g
2g
=9
0f
=10
2r}
{2a
2a
2g
=11
2f
2e
1d
=12
1c
2r}
{2c
=13
2f
2f
2g
2a
=14
2b-
2.a
4g
2f
=15
2g
2a
1b-
=16
1a
2r}
{2a
=17
2a
2g
2a
2b-
=18
1cc
2b-
[2a
=19
2a]
4g
4f
1g
=20
0f}
==
!!!AGN: Romanze, Ballade, Lied
!! 68 Lieder. Nuernberg bei Berg und Newber 1542 No. 57.
!!!ONB: ESAC (Essen Associative Code) Database: ALTDEU
!!!AMT: simple quadruple
!!!AIN: vox
!!!EED: Helmut Schaffrath
!!!EEV: 1.0
*-
